public/icons/task.svg

<svg width="88" height="89" viewBox="0 0 88 89" fill="none" xmlns="http://www.w3.org/2000/svg">
<circle cx="44.0002" cy="44.2992" r="44" fill="white"/>
<path d="M37.4227 23.2992C37.0224 23.3747 36.7336 23.729 36.7402 24.1392V24.9792H30.0202C28.6388 24.9792 27.5002 26.1178 27.5002 27.4992V62.7792C27.5002 64.1606 28.6388 65.2992 30.0202 65.2992H58.5802C59.9616 65.2992 61.1002 64.1606 61.1002 62.7792V27.4992C61.1002 26.1178 59.9616 24.9792 58.5802 24.9792H51.8602V24.1392C51.8602 23.6765 51.4828 23.2992 51.0202 23.2992H37.5802C37.5539 23.2992 37.5277 23.2992 37.5014 23.2992C37.4752 23.2992 37.4489 23.2992 37.4227 23.2992ZM38.4202 24.9792H50.1802V30.0192H38.4202V24.9792ZM30.0202 26.6592H36.7402V28.3392H30.8602V61.9392H57.7402V28.3392H51.8602V26.6592H58.5802C59.0461 26.6592 59.4202 27.0333 59.4202 27.4992V62.7792C59.4202 63.2451 59.0461 63.6192 58.5802 63.6192H30.0202C29.5542 63.6192 29.1802 63.2451 29.1802 62.7792V27.4992C29.1802 27.0333 29.5542 26.6592 30.0202 26.6592ZM32.5402 30.0192H36.7402V30.8592C36.7402 31.3218 37.1175 31.6992 37.5802 31.6992H51.0202C51.4828 31.6992 51.8602 31.3218 51.8602 30.8592V30.0192H56.0602V60.2592H32.5402V30.0192ZM50.7839 38.9442L50.3114 39.6529L43.4864 50.2317L38.9714 46.1892L38.3677 45.6379L37.2389 46.8717L37.8689 47.4492L43.0664 52.1479L43.8014 52.8042L44.3264 51.9904L51.7289 40.5454L52.1752 39.8629L50.7839 38.9442Z" fill="#1A56FF"/>
</svg>

<svg xmlns="http://www.w3.org/2000/svg" width="88" height="89" fill="none"><circle cx="44" cy="44.299" r="44" fill="#fff"/><path fill="#1A56FF" d="M37.423 23.3a.84.84 0 0 0-.683.84v.84h-6.72a2.533 2.533 0 0 0-2.52 2.52v35.28a2.533 2.533 0 0 0 2.52 2.52h28.56a2.533 2.533 0 0 0 2.52-2.52V27.5a2.533 2.533 0 0 0-2.52-2.52h-6.72v-.84a.842.842 0 0 0-.84-.84H37.423Zm.997 1.68h11.76v5.04H38.42v-5.04Zm-8.4 1.68h6.72v1.68h-5.88v33.6h26.88v-33.6h-5.88v-1.68h6.72c.466 0 .84.373.84.84v35.28c0 .465-.374.84-.84.84H30.02a.837.837 0 0 1-.84-.84V27.5c0-.467.374-.84.84-.84Zm2.52 3.36h4.2v.84c0 .462.377.84.84.84h13.44c.463 0 .84-.378.84-.84v-.84h4.2v30.24H32.54V30.02Zm18.244 8.924-.473.709-6.825 10.579-4.515-4.043-.603-.551-1.13 1.234.63.577 5.198 4.699.735.656.525-.814 7.403-11.445.446-.682-1.391-.919Z"/></svg>
